X: 5086
T: Sporting Nell (reel)
B: "Music from Ireland 2" (Bulmer & Sharpley) #26
R: reel
M: C
Q: 360
L: 1/8
K: Dm
ADD2 A2dc|A2GF ECC2|ADD2 A2dc|1 AcGE EDD2 :|2 AcGE FGA=B||
c2ec gcec|c2ec Add=B|c2ec gcec|AcGE D3=B|
c2ec gcec|c2ec Adde|f3d efed|cAAG Addc ||

